assets/icon-eye.svg

<svg
  class="icon icon-accordion icon-eye"
  aria-hidden="true"
  focusable="false"
  xmlns="http://www.w3.org/2000/svg"
  width="20"
  height="20"
  viewBox="0 0 20 20"
>
  <path d="M9.5235 4.79973C6.76257 4.92905 4.08307 6.62063 1.1722 9.66543C0.993412 9.85244 0.993412 10.1474 1.1722 10.3344C4.08307 13.3793 6.76258 15.0709 9.52351 15.2003C12.2733 15.3291 15.2667 13.9138 18.8217 10.3399C19.0086 10.152 19.0086 9.84814 18.8217 9.6602C15.2667 6.0863 12.2733 4.67093 9.5235 4.79973ZM9.47509 3.7592C12.6521 3.61039 15.9149 5.26347 19.5564 8.92433C20.1479 9.5189 20.1479 10.4812 19.5564 11.0758C15.9149 14.7366 12.6521 16.3897 9.47508 16.2408C6.30917 16.0924 3.3912 14.1603 0.42305 11.0555C-0.141017 10.4655 -0.141017 9.53435 0.423051 8.94433C3.3912 5.8396 6.30918 3.90749 9.47509 3.7592Z"/>
  <path d="M13.5807 10.0002C13.5807 11.9741 11.9742 13.5586 10.012 13.5586C8.04979 13.5586 6.44327 11.9741 6.44327 10.0002C6.44327 8.02617 8.04979 6.44176 10.012 6.44176C11.9742 6.44176 13.5807 8.02617 13.5807 10.0002ZM10.012 12.5169C11.4096 12.5169 12.5426 11.3901 12.5426 10.0002C12.5426 8.6102 11.4096 7.48342 10.012 7.48342C8.61438 7.48342 7.48138 8.6102 7.48138 10.0002C7.48138 11.3901 8.61438 12.5169 10.012 12.5169Z"/>
</svg>

<svg xmlns="http://www.w3.org/2000/svg" class="icon icon-accordion icon-eye" viewBox="0 0 20 20"><path d="M9.524 4.8c-2.761.13-5.44 1.82-8.352 4.865a.484.484 0 0 0 0 .67c2.911 3.044 5.59 4.736 8.352 4.865 2.75.13 5.743-1.286 9.298-4.86a.48.48 0 0 0 0-.68c-3.555-3.574-6.549-4.99-9.298-4.86m-.049-1.04c3.177-.15 6.44 1.503 10.081 5.164a1.526 1.526 0 0 1 0 2.152c-3.641 3.66-6.904 5.314-10.08 5.165-3.167-.149-6.085-2.08-9.053-5.185a1.53 1.53 0 0 1 0-2.112C3.391 5.84 6.31 3.907 9.475 3.76"/><path d="M13.58 10a3.564 3.564 0 0 1-3.568 3.559A3.564 3.564 0 0 1 6.443 10a3.564 3.564 0 0 1 3.569-3.558A3.564 3.564 0 0 1 13.581 10m-3.568 2.517A2.524 2.524 0 0 0 12.542 10a2.524 2.524 0 0 0-2.53-2.517A2.524 2.524 0 0 0 7.482 10a2.524 2.524 0 0 0 2.53 2.517"/></svg>
